img/apple-store.svg

<svg width="26" height="26" viewBox="0 0 26 26" fill="none" xmlns="http://www.w3.org/2000/svg">
<g clip-path="url(#clip0_2_148)">
<path d="M16.8716 4.11975C17.6998 3.1188 18.2818 1.75934 18.2526 0.374632C18.2476 0.142105 18.0355 -0.0305513 17.8056 0.00453855C16.5905 0.190195 15.2323 0.951152 14.3916 1.93544C13.6167 2.83138 12.929 4.2237 12.9807 5.60337C12.9885 5.81127 13.1641 5.97697 13.3721 5.97108C14.7132 5.93315 16.0372 5.13009 16.8716 4.11975Z" fill="#D6D6D8"/>
<path d="M14.0272 5.60336C13.947 3.4644 15.5608 0.966063 18.1802 0.160622C18.098 0.0475829 17.9558 -0.0183819 17.8057 0.00452044C16.5907 0.190177 15.2324 0.951134 14.3917 1.93543C13.6168 2.83136 12.9291 4.22373 12.9808 5.60336C12.9886 5.81125 13.1643 5.97695 13.3722 5.97106C13.6323 5.9637 13.8916 5.92729 14.1469 5.86645C14.0765 5.79983 14.031 5.70685 14.0272 5.60336Z" fill="#C2C2C4"/>
<path d="M23.3444 18.9264C22.5025 18.5025 20.179 17.0398 20.1503 13.7958C20.1257 11.1403 21.8878 9.59615 22.6374 9.057C22.8153 8.92898 22.8544 8.67848 22.7192 8.50598C22.0963 7.71201 21.3681 7.20273 20.6685 6.8726C20.6689 6.87255 20.6694 6.87244 20.6698 6.87239C20.5792 6.82958 20.4241 6.76164 20.2999 6.71274C16.7798 5.32707 14.5614 7.451 13.2175 7.451C12.1887 7.451 10.601 6.28846 8.9188 6.3202C6.70834 6.35229 4.67232 7.60608 3.53243 9.58452C1.78362 12.6199 2.36035 16.7694 3.72286 20.0032C3.72286 20.0033 3.72281 20.0033 3.72281 20.0033C3.75769 20.086 3.81325 20.2148 3.85956 20.3187C3.85961 20.3186 3.85961 20.3186 3.85966 20.3185C4.25439 21.2049 4.70629 22.015 5.18236 22.7035C6.27553 24.2836 7.57964 26.0636 9.29316 25.9982C10.9424 25.9328 11.5659 24.9319 13.5589 24.9319C15.5507 24.9319 16.1126 25.9982 17.8564 25.9664C19.6316 25.9328 20.7557 24.354 21.8414 22.7664C22.7969 21.3715 23.3241 20.0099 23.5353 19.3969C23.5983 19.2142 23.5171 19.0133 23.3444 18.9264Z" fill="#D6D6D8"/>
<path d="M6.22869 22.7038C5.75261 22.0152 5.30071 21.2051 4.90599 20.3187C4.90594 20.3187 4.90594 20.3188 4.90589 20.3189C4.85963 20.215 4.80453 20.0874 4.76913 20.0035C4.76913 20.0035 4.76919 20.0035 4.76919 20.0034C3.41505 16.7896 2.82371 12.6309 4.57876 9.58474C5.6315 7.75763 7.44866 6.5494 9.46157 6.34988C9.28211 6.32829 9.10108 6.31702 8.91882 6.32042C6.70837 6.35252 4.67235 7.60631 3.53246 9.58474C1.78366 12.6201 2.36038 16.7696 3.72289 20.0034C3.72289 20.0035 3.72284 20.0035 3.72284 20.0035C3.75772 20.0863 3.81328 20.215 3.85959 20.3189C3.85964 20.3188 3.85969 20.3188 3.85969 20.3187C4.25442 21.2051 4.70632 22.0152 5.18234 22.7038C6.27551 24.2838 7.57962 26.0638 9.29313 25.9984C9.46173 25.9917 9.61915 25.9749 9.76885 25.9507C8.33134 25.6591 7.19709 24.1035 6.22869 22.7038Z" fill="#C2C2C4"/>
</g>
<defs>
<clipPath id="clip0_2_148">
<rect width="26" height="26" fill="white"/>
</clipPath>
</defs>
</svg>

<svg xmlns="http://www.w3.org/2000/svg" width="26" height="26" fill="none" xmlns:v="https://vecta.io/nano"><g clip-path="url(#A)"><path d="M16.872 4.12c.828-1.001 1.41-2.36 1.381-3.745-.005-.233-.217-.405-.447-.37-1.215.186-2.573.947-3.414 1.931-.775.896-1.463 2.288-1.411 3.668.008.208.183.374.391.368 1.341-.038 2.665-.841 3.5-1.851z" fill="#d6d6d8"/><path d="M14.027 5.603C13.947 3.464 15.561.966 18.18.161a.39.39 0 0 0-.374-.156c-1.215.186-2.573.947-3.414 1.931-.775.896-1.463 2.288-1.411 3.668.008.208.184.374.391.368.26-.007.519-.044.775-.105a.38.38 0 0 1-.12-.263z" fill="#c2c2c4"/><path d="M23.344 18.926c-.842-.424-3.165-1.887-3.194-5.131-.025-2.655 1.737-4.2 2.487-4.739.178-.128.217-.379.082-.551-.623-.794-1.351-1.303-2.051-1.633l-.369-.16c-3.52-1.386-5.738.738-7.082.738-1.029 0-2.616-1.163-4.299-1.131-2.21.032-4.246 1.286-5.386 3.264-1.749 3.035-1.172 7.185.19 10.419l.137.316c.395.886.847 1.696 1.323 2.385 1.093 1.58 2.397 3.36 4.111 3.295 1.649-.065 2.273-1.066 4.266-1.066s2.554 1.066 4.298 1.035c1.775-.034 2.899-1.612 3.985-3.2.956-1.395 1.483-2.757 1.694-3.37.063-.183-.018-.384-.191-.47z" fill="#d6d6d8"/><path d="M6.229 22.704a14.85 14.85 0 0 1-1.323-2.385l-.137-.315c-1.354-3.214-1.945-7.373-.19-10.419 1.053-1.827 2.87-3.035 4.883-3.235-.179-.022-.36-.033-.543-.029-2.21.032-4.246 1.286-5.386 3.264-1.749 3.035-1.172 7.185.19 10.419l.137.316a14.87 14.87 0 0 0 1.323 2.385c1.093 1.58 2.397 3.36 4.111 3.295a3.95 3.95 0 0 0 .476-.048c-1.438-.292-2.572-1.847-3.54-3.247z" fill="#c2c2c4"/></g><defs><clipPath id="A"><path fill="#fff" d="M0 0h26v26H0z"/></clipPath></defs></svg>
